X: 3889
T: Black Velvet
R: waltz
M: 3/4
K: Cmajor
GAB|C2c bce|G2e2c2|F2fefa|C2b2a2|
C2c bce|G2f2e2|D4de|D3GAB|
C2c bce|G2e2c2|F2fefa|C2b2a2|
G2g ^fgb|D2a2b2|C4cd|C2E2F2||
G2g ^fga|G2e2d2|C2c bcd|C2e2f2|
G2g ^fga|G2f2e2|G2g ag2|D2e2f2|
G2g ^fga|G2e2d2|C2c bcd|C2b2a2|
G2g ^fgb|D2a2b2|C4cd|C4||

